source/img/auto.svg

<svg width="18" height="21" viewBox="0 0 18 21" fill="none" xmlns="http://www.w3.org/2000/svg">
<path d="M4.34046 13.9485C4.34046 13.5699 4.20185 13.2467 3.92462 12.9788C3.64739 12.711 3.31288 12.5771 2.92106 12.5771C2.52925 12.5771 2.19473 12.711 1.91751 12.9788C1.64028 13.2467 1.50167 13.5699 1.50167 13.9485C1.50167 14.3271 1.64028 14.6503 1.91751 14.9181C2.19473 15.186 2.52925 15.3199 2.92106 15.3199C3.31288 15.3199 3.64739 15.186 3.92462 14.9181C4.20185 14.6503 4.34046 14.3271 4.34046 13.9485ZM15.6956 13.9485C15.6956 13.5699 15.557 13.2467 15.2798 12.9788C15.0025 12.711 14.668 12.5771 14.2762 12.5771C13.8844 12.5771 13.5499 12.711 13.2727 12.9788C12.9954 13.2467 12.8568 13.5699 12.8568 13.9485C12.8568 14.3271 12.9954 14.6503 13.2727 14.9181C13.5499 15.186 13.8844 15.3199 14.2762 15.3199C14.668 15.3199 15.0025 15.186 15.2798 14.9181C15.557 14.6503 15.6956 14.3271 15.6956 13.9485ZM15.1855 9.70563L14.3871 5.59135C14.3501 5.42706 14.267 5.29313 14.1376 5.18956C14.0082 5.08599 13.8585 5.0342 13.6885 5.0342H3.50878C3.33875 5.0342 3.18905 5.08599 3.05968 5.18956C2.9303 5.29313 2.84714 5.42706 2.81017 5.59135L2.01176 9.70563C1.9748 9.91992 2.02655 10.1092 2.16701 10.2735C2.30747 10.4378 2.48859 10.5199 2.71037 10.5199H14.4869C14.7087 10.5199 14.8898 10.4378 15.0303 10.2735C15.1707 10.1092 15.2225 9.91992 15.1855 9.70563ZM12.6794 3.14849C12.6794 3.00563 12.6276 2.88421 12.5242 2.78421C12.4207 2.68421 12.295 2.63421 12.1471 2.63421H5.05015C4.9023 2.63421 4.77663 2.68421 4.67313 2.78421C4.56963 2.88421 4.51788 3.00563 4.51788 3.14849C4.51788 3.29135 4.56963 3.41278 4.67313 3.51278C4.77663 3.61278 4.9023 3.66278 5.05015 3.66278H12.1471C12.295 3.66278 12.4207 3.61278 12.5242 3.51278C12.6276 3.41278 12.6794 3.29135 12.6794 3.14849ZM17.115 10.9163V17.3771H15.6956V18.7485C15.6956 19.1271 15.557 19.4503 15.2798 19.7181C15.0025 19.986 14.668 20.1199 14.2762 20.1199C13.8844 20.1199 13.5499 19.986 13.2727 19.7181C12.9954 19.4503 12.8568 19.1271 12.8568 18.7485V17.3771H4.34046V18.7485C4.34046 19.1271 4.20185 19.4503 3.92462 19.7181C3.64739 19.986 3.31288 20.1199 2.92106 20.1199C2.52925 20.1199 2.19473 19.986 1.91751 19.7181C1.64028 19.4503 1.50167 19.1271 1.50167 18.7485V17.3771H0.0822754V10.9163C0.0822754 10.1163 0.174684 9.31992 0.359501 8.52706L1.50167 3.66278C1.5682 3.10563 1.9286 2.61635 2.58285 2.19492C3.2371 1.77349 4.08726 1.45564 5.13332 1.24135C6.17939 1.02706 7.33449 0.919922 8.59864 0.919922C9.86279 0.919922 11.0179 1.02706 12.064 1.24135C13.11 1.45564 13.9602 1.77349 14.6144 2.19492C15.2687 2.61635 15.6291 3.10563 15.6956 3.66278L16.86 8.52706C17.03 9.25563 17.115 10.0521 17.115 10.9163Z" fill="#1D2E5B"/>
</svg>

<svg width="18" height="21" fill="none" xmlns="http://www.w3.org/2000/svg"><path d="M4.34 13.95c0-.38-.14-.7-.42-.97a1.4 1.4 0 00-1-.4c-.4 0-.73.13-1 .4-.28.27-.42.59-.42.97s.14.7.42.97c.27.27.6.4 1 .4s.73-.13 1-.4c.28-.27.42-.6.42-.97zm11.36 0c0-.38-.14-.7-.42-.97a1.4 1.4 0 00-1-.4c-.4 0-.73.13-1 .4-.28.27-.42.59-.42.97s.14.7.41.97c.28.27.61.4 1 .4.4 0 .73-.13 1.01-.4s.42-.6.42-.97zm-.51-4.24l-.8-4.12a.7.7 0 00-.25-.4.7.7 0 00-.45-.16H3.5a.7.7 0 00-.45.16.7.7 0 00-.25.4l-.8 4.12c-.04.21.02.4.16.56.14.17.32.25.54.25h11.78c.22 0 .4-.08.54-.25.14-.16.2-.35.16-.56zm-2.51-6.56a.52.52 0 00-.53-.51h-7.1a.52.52 0 00-.38.14c-.1.1-.15.23-.15.37 0 .14.05.26.15.36.1.1.23.15.38.15h7.1a.52.52 0 00.53-.51zm4.43 7.77v6.46H15.7v1.37c0 .38-.14.7-.42.97-.28.27-.61.4-1 .4-.4 0-.73-.13-1-.4a1.3 1.3 0 01-.42-.97v-1.37H4.34v1.37c0 .38-.14.7-.42.97-.27.27-.6.4-1 .4s-.73-.13-1-.4a1.3 1.3 0 01-.42-.97v-1.37H.08v-6.46c0-.8.1-1.6.28-2.4L1.5 3.67c.07-.55.43-1.04 1.08-1.47.66-.42 1.5-.73 2.55-.95A17.3 17.3 0 018.6.92c1.26 0 2.42.1 3.46.32 1.05.22 1.9.53 2.55.95.66.43 1.02.92 1.09 1.47l1.16 4.87c.17.73.25 1.52.25 2.39z" fill="#1D2E5B"/></svg>
